flaticon/emoticons/superhero-3.svg

<svg xmlns="http://www.w3.org/2000/svg" width="32" height="32" viewBox="0 0 24 24">
    <path d="M 24 12 C 24 7.242188 21.214844 3.121094 17.1875 1.179688 C 17.1875 1.179688 17.1875 1.175781 17.183594 1.175781 C 17.175781 1.171875 17.167969 1.171875 17.164062 1.167969 C 15.597656 0.421875 13.847656 0 12 0 C 10.199219 0 8.472656 0.386719 6.855469 1.15625 C 2.691406 3.132812 0 7.390625 0 12 C 0 18.617188 5.382812 24 12 24 C 15.183594 24 18.082031 22.75 20.230469 20.71875 C 20.4375 20.699219 20.625 20.570312 20.695312 20.363281 C 20.710938 20.320312 20.707031 20.28125 20.714844 20.238281 C 22.75 18.085938 24 15.1875 24 12 Z M 22.910156 12 C 22.910156 14.894531 21.765625 17.523438 19.921875 19.480469 C 18.855469 18.984375 16.125 17.449219 14.960938 14.292969 C 13.773438 11.0625 14.503906 7.054688 17.125 2.375 C 20.5625 4.214844 22.910156 7.835938 22.910156 12 Z M 1.089844 12 C 1.089844 7.980469 3.347656 4.261719 6.875 2.375 C 9.558594 7.160156 10.332031 11.242188 9.15625 14.511719 C 7.886719 18.039062 4.6875 19.460938 4.230469 19.648438 C 2.292969 17.675781 1.089844 14.976562 1.089844 12 Z M 5.109375 20.449219 C 6.277344 19.878906 8.960938 18.257812 10.175781 14.898438 C 11.46875 11.328125 10.683594 6.960938 7.859375 1.902344 C 9.171875 1.363281 10.5625 1.089844 12 1.089844 C 13.464844 1.089844 14.859375 1.386719 16.136719 1.910156 C 13.378906 6.859375 12.636719 11.15625 13.945312 14.683594 C 15.136719 17.90625 17.695312 19.582031 19.078125 20.285156 C 17.171875 21.917969 14.699219 22.910156 12 22.910156 C 9.386719 22.910156 6.988281 21.984375 5.109375 20.449219 Z M 5.109375 20.449219"/>
    <path d="M6.253906 14.523438C7.042969 14.523438 7.757812 14.238281 8.214844 13.664062L8.214844 13.660156C9.152344 12.484375 8.667969 10.539062 7.136719 9.320312 6.421875 8.75 5.578125 8.417969 4.765625 8.382812 3.890625 8.339844 3.140625 8.648438 2.664062 9.246094 2.191406 9.84375 2.058594 10.636719 2.292969 11.484375 2.511719 12.269531 3.023438 13.019531 3.742188 13.585938 4.523438 14.210938 5.429688 14.523438 6.253906 14.523438zM3.519531 9.925781C3.753906 9.628906 4.144531 9.46875 4.621094 9.46875 4.652344 9.46875 4.683594 9.46875 4.71875 9.472656 5.304688 9.496094 5.921875 9.746094 6.457031 10.171875 7.5 11.003906 7.914062 12.289062 7.359375 12.980469 6.808594 13.675781 5.460938 13.5625 4.421875 12.734375 3.882812 12.308594 3.5 11.761719 3.34375 11.195312 3.207031 10.691406 3.269531 10.242188 3.519531 9.925781zM16.832031 9.320312C16.117188 9.890625 15.601562 10.636719 15.382812 11.421875 15.148438 12.269531 15.28125 13.066406 15.757812 13.660156 16.203125 14.226562 16.894531 14.53125 17.710938 14.53125 17.757812 14.53125 17.808594 14.527344 17.855469 14.527344 18.667969 14.492188 19.511719 14.160156 20.230469 13.585938 21.757812 12.371094 22.242188 10.421875 21.304688 9.246094 20.367188 8.070312 18.363281 8.101562 16.832031 9.320312zM20.453125 9.925781C21.003906 10.621094 20.589844 11.90625 19.550781 12.734375 19.011719 13.164062 18.394531 13.410156 17.808594 13.4375 17.289062 13.464844 16.863281 13.296875 16.609375 12.984375L16.609375 12.980469C16.359375 12.667969 16.296875 12.214844 16.4375 11.714844 16.59375 11.148438 16.972656 10.601562 17.511719 10.171875 18.09375 9.710938 18.773438 9.472656 19.351562 9.472656 19.808594 9.472656 20.207031 9.621094 20.453125 9.925781zM20.453125 9.925781"/>
</svg>

<svg xmlns="http://www.w3.org/2000/svg" width="32" height="32" viewBox="0 0 24 24">
    <path d="M24 12c0-4.758-2.785-8.879-6.813-10.82 0 0 0-.004-.003-.004-.008-.004-.016-.004-.02-.008A11.977 11.977 0 0 0 12 0c-1.8 0-3.527.387-5.145 1.156A12.06 12.06 0 0 0 0 12c0 6.617 5.383 12 12 12a11.95 11.95 0 0 0 8.23-3.281.536.536 0 0 0 .465-.356c.016-.043.012-.082.02-.125A11.955 11.955 0 0 0 24 12zm-1.09 0c0 2.895-1.144 5.523-2.988 7.48-1.067-.496-3.797-2.03-4.961-5.187-1.188-3.23-.457-7.238 2.164-11.918 3.438 1.84 5.785 5.46 5.785 9.625zM1.09 12c0-4.02 2.258-7.738 5.785-9.625 2.684 4.785 3.457 8.867 2.281 12.137-1.27 3.527-4.469 4.949-4.926 5.136A10.888 10.888 0 0 1 1.09 12zm4.02 8.45c1.167-.571 3.85-2.192 5.066-5.552 1.293-3.57.508-7.937-2.317-12.996A10.835 10.835 0 0 1 12 1.09c1.465 0 2.86.297 4.137.82-2.758 4.95-3.5 9.246-2.192 12.774 1.192 3.222 3.75 4.898 5.133 5.601A10.85 10.85 0 0 1 12 22.91c-2.613 0-5.012-.926-6.89-2.46zm0 0"/>
    <path d="M6.254 14.523c.789 0 1.504-.285 1.96-.859v-.004c.938-1.176.454-3.12-1.077-4.34-.715-.57-1.559-.902-2.371-.937-.875-.043-1.625.265-2.102.863-.473.598-.605 1.39-.371 2.238.219.786.73 1.536 1.45 2.102.78.625 1.687.937 2.51.937zM3.52 9.926c.234-.297.625-.457 1.101-.457a.85.85 0 0 1 .098.004c.586.023 1.203.273 1.738.699 1.043.832 1.457 2.117.902 2.808-.55.696-1.898.582-2.937-.246-.54-.425-.922-.972-1.078-1.539-.137-.504-.074-.953.176-1.27zm0 0M16.832 9.32c-.715.57-1.23 1.317-1.45 2.102-.234.848-.1 1.644.376 2.238.445.567 1.137.871 1.953.871.047 0 .098-.004.144-.004.813-.035 1.657-.367 2.375-.941 1.528-1.215 2.012-3.164 1.075-4.34-.938-1.176-2.942-1.144-4.473.074zm3.621.606c.55.695.137 1.98-.902 2.808-.54.43-1.156.676-1.742.704-.52.027-.946-.141-1.2-.454v-.004c-.25-.312-.312-.765-.172-1.265.157-.567.536-1.113 1.075-1.543.582-.461 1.261-.7 1.84-.7.457 0 .855.15 1.101.454zm0 0"/>
</svg>
